src/renderer/assets/icon/browsingfullscreen-default-icon.svg

<?xml version="1.0" encoding="UTF-8"?>
<svg width="30px" height="30px" viewBox="0 0 30 30" version="1.1" xmlns="http://www.w3.org/2000/svg" xmlns:xlink="http://www.w3.org/1999/xlink">
    <!-- Generator: Sketch 57.1 (83088) - https://sketch.com -->
    <desc>Created with Sketch.</desc>
    <g id="menuBar/__icon/--fullscreen" stroke="none" stroke-width="1" fill="none" fill-rule="evenodd">
        <path d="M9.8,21 C9.3581722,21 9,20.6418278 9,20.2 L9,9.8 C9,9.3581722 9.3581722,9 9.8,9 L20.2,9 L20.2,9 C20.6418278,9 21,9.3581722 21,9.8 L21,20.2 L21,20.2 C21,20.607841 20.6948119,20.9444016 20.3003503,20.9937669 L20.2,21 L20.2,21 L9.8,21 Z M19.399,19.399 L19.399,10.6 L10.599,10.6 L10.599,19.399 L19.399,19.399 Z" id="形状结合" fill="#7E808F" fill-rule="nonzero"></path>
    </g>
</svg>

<svg width="30" height="30" xmlns="http://www.w3.org/2000/svg">
    <path d="M9.8 21a.8.8 0 01-.8-.8V9.8a.8.8 0 01.8-.8h10.4a.8.8 0 01.8.8v10.4a.8.8 0 01-.7.794l-.1.006H9.8zm9.599-1.601V10.6h-8.8v8.799h8.8z" fill="#7E808F"/>
</svg>
